static/images/play.svg

<svg width="100%" height="100%" viewBox="0 0 59 58" fill="none" xmlns="http://www.w3.org/2000/svg">
<g clip-path="url(#clip0_6579_20131)">
<path d="M2.21187 29.0562C2.21187 14.2844 14.4422 2.05408 29.1878 2.05408C43.9333 2.05408 56.2161 14.2844 56.2161 29.0562C56.2161 43.8279 43.9857 56.0583 29.214 56.0583C14.4422 56.0583 2.21187 43.8017 2.21187 29.0562Z" fill="#FAC33D"/>
<path d="M21.6157 38.2683V19.8704C21.6157 18.5709 23.1248 18.0678 24.2619 18.7333L39.3272 27.6571C40.4118 28.3174 40.438 29.8527 39.3272 30.492L24.2619 39.4159C23.02 40.1547 21.6157 39.5469 21.6157 38.2788V38.2683Z" fill="#16161A"/>
</g>
<defs>
<clipPath id="clip0_6579_20131">
<rect width="54.0094" height="54.0042" fill="white" transform="translate(2.21228 2.0542)"/>
</clipPath>
</defs>
</svg>

<svg xmlns="http://www.w3.org/2000/svg" fill="none" viewBox="0 0 59 58"><g clip-path="url(#a)"><path fill="#FAC33D" d="M2.212 29.056c0-14.772 12.23-27.002 26.976-27.002 14.745 0 27.028 12.23 27.028 27.002 0 14.772-12.23 27.002-27.002 27.002-14.772 0-27.002-12.256-27.002-27.002Z"/><path fill="#16161A" d="M21.616 38.268V19.87c0-1.3 1.509-1.802 2.646-1.137l15.065 8.924c1.085.66 1.111 2.196 0 2.835l-15.065 8.924c-1.242.739-2.646.13-2.646-1.137v-.01Z"/></g><defs><clipPath id="a"><path fill="#fff" d="M2.212 2.054h54.01v54.004H2.211z"/></clipPath></defs></svg>
